src/content/resume/images/sniegas.svg

<svg width="128" height="64" viewBox="0 0 128 64" fill="none" xmlns="http://www.w3.org/2000/svg">
<path fill-rule="evenodd" clip-rule="evenodd" d="M33.1006 26.2599C35.2734 25.0018 37.7354 24.7068 39.9993 25.2399C39.3272 27.4724 37.8421 29.4643 35.6696 30.723C33.4971 31.9807 31.0345 32.2754 28.7709 31.743C29.4423 29.5096 30.9281 27.5177 33.1006 26.2599ZM15 25.2395C17.2642 24.707 19.7262 25.0018 21.8994 26.2598C24.0719 27.5181 25.5577 29.5103 26.2288 31.7423C23.9655 32.2754 21.5039 31.9804 19.3307 30.7223C17.1582 29.4646 15.6724 27.4727 15 25.2395ZM27.4998 18C29.0916 19.7005 30.0682 21.9871 30.0682 24.5032C30.0682 27.0203 29.0916 29.3066 27.4998 31.0074C25.9087 29.3066 24.9318 27.0203 24.9318 24.5032C24.9318 21.9871 25.9087 19.7005 27.4998 18ZM27.4998 33.9509C29.0916 35.6514 30.0682 37.9374 30.0682 40.4548C30.0682 42.9712 29.0916 45.2575 27.4998 46.9583C25.9087 45.2575 24.9318 42.9712 24.9318 40.4548C24.9318 37.9374 25.9087 35.6514 27.4998 33.9509ZM28.7709 33.215C31.0345 32.6826 33.4971 32.977 35.6696 34.2353C37.8425 35.4937 39.3276 37.4859 40 39.7189C37.7358 40.2511 35.2738 39.9563 33.1009 38.6986C30.9281 37.4403 29.4427 35.448 28.7709 33.215ZM26.2294 33.215C25.5574 35.4484 24.0716 37.4403 21.8991 38.6983C19.7259 39.9567 17.2639 40.2511 15 39.7183C15.6721 37.4856 17.1575 35.4934 19.33 34.235C21.5029 32.9773 23.9655 32.6826 26.2294 33.215Z" fill="currentColor"/>
<path d="M47.7 29.82C47.7 34.1 54.12 31.5 54.12 34C54.12 35.04 53.16 35.54 51.9 35.54C50.16 35.54 48.64 35 48.6 33.42C48.04 34.1 47.82 34.66 47.82 35.16C47.82 36.56 49.54 37.24 51.9 37.24C54.84 37.24 56.26 36.02 56.26 34.1C56.26 29.38 49.84 31.86 49.84 29.76C49.84 28.76 50.42 28.32 52 28.32C53.84 28.32 55.08 28.98 55.08 30.28C55.56 29.62 55.76 29.04 55.76 28.56C55.76 27.2 54.18 26.58 51.9 26.58C49.16 26.58 47.7 27.68 47.7 29.82ZM64.4809 36C64.4809 37.1 66.5809 37.14 66.5809 37.14V29.76C66.5809 27.28 64.5209 26.62 62.5809 26.62C61.4809 26.62 60.5809 27.04 59.6009 27.04C58.9009 27.04 58.2809 26.78 58.0609 26.66V36C58.0609 37.14 60.1609 37.14 60.1609 37.14V28.6C60.1609 28.6 61.0609 28.26 62.3009 28.26C63.9009 28.26 64.4809 28.92 64.4809 30.06V36ZM68.9742 36C68.9742 37.14 71.0742 37.14 71.0742 37.14V27.86C71.0742 26.72 69.0542 26.72 68.9742 26.72V36ZM68.9742 24.56C68.9742 24.82 69.2742 25.04 69.5742 25.04H71.0542V23.52C71.0542 23.28 70.7142 23.02 70.4742 23.02H68.9742V24.56ZM81.0813 33.46C81.0613 34.76 79.6612 35.54 77.7413 35.54C76.0612 35.54 75.3812 34.88 75.3812 33.58V32.48C75.9212 32.78 76.7612 32.9 77.4213 32.9C80.4613 32.9 81.5212 31.44 81.5212 29.78C81.5212 27.88 80.1413 26.62 77.4412 26.62C74.7412 26.62 73.2812 27.88 73.2812 29.98V33.88C73.2812 35.98 74.9612 37.24 77.7413 37.24C79.8813 37.24 81.6413 36.4 81.6413 34.98C81.6413 34.52 81.4612 34.02 81.0813 33.46ZM75.3812 30.28C75.3812 28.98 75.8012 28.22 77.4012 28.22C78.8812 28.22 79.4212 28.86 79.4212 29.78C79.4212 30.68 78.8412 31.2 77.1612 31.2C76.4412 31.2 75.4812 30.96 75.3812 30.92V30.28ZM91.6728 26.66C91.0728 26.92 90.5728 27.02 90.1128 27.02C89.1728 27.02 88.2128 26.62 87.1128 26.62C85.1928 26.62 83.3328 27.46 83.3328 29.72V30.76C83.3328 31.54 83.5928 32.4 84.0728 32.92C83.4928 33.6 83.0728 34.18 83.0728 34.98C83.0728 37.04 84.8728 37.24 86.7928 37.24H87.7728C89.0728 37.24 89.9728 37.36 89.9728 38.46C89.9728 39.48 89.3728 40.24 87.4128 40.24C85.4528 40.24 83.9928 39.64 83.8928 38.14C83.4728 38.72 83.2928 39.24 83.2928 39.7C83.2928 41.06 85.0128 41.84 87.5128 41.84C90.6328 41.84 92.0528 40.42 92.0528 38.36C92.0528 35.66 89.8328 35.62 87.8328 35.62H87.1728C85.6528 35.62 84.8128 35.48 84.8128 34.48C84.8128 34.22 84.8928 33.88 84.9528 33.56C84.9528 33.56 85.8728 34.14 87.5128 34.14C90.2128 34.14 91.6728 32.88 91.6728 30.76V26.66ZM89.5928 30.46C89.5928 31.78 89.1728 32.54 87.5128 32.54C85.8328 32.54 85.4328 31.78 85.4328 30.46V30.02C85.4328 28.72 85.9128 28.18 87.4928 28.18C88.6528 28.18 89.4928 28.56 89.5928 28.6V30.46ZM99.5672 35.24C99.5672 35.24 98.7272 35.7 97.4672 35.7C96.0272 35.7 95.3672 35.08 95.3672 34.2C95.3672 32.12 99.1472 32.84 99.5672 31.64V35.24ZM93.2872 34.2C93.2872 36.48 95.2272 37.24 97.1672 37.24C98.2872 37.24 99.2072 36.88 100.167 36.88C100.627 36.88 101.107 36.94 101.607 37.16V29.94C101.607 27.84 100.127 26.62 97.3872 26.62C95.6072 26.62 93.5672 27.22 93.5672 28.78C93.5672 29.26 93.7472 29.82 94.2272 30.48C94.2272 28.94 95.6072 28.28 97.3872 28.28C99.0872 28.28 99.5072 28.96 99.5072 29.84C98.7472 31.58 93.2872 30.4 93.2872 34.2ZM103.297 29.82C103.297 34.1 109.717 31.5 109.717 34C109.717 35.04 108.757 35.54 107.497 35.54C105.757 35.54 104.237 35 104.197 33.42C103.637 34.1 103.417 34.66 103.417 35.16C103.417 36.56 105.137 37.24 107.497 37.24C110.437 37.24 111.857 36.02 111.857 34.1C111.857 29.38 105.437 31.86 105.437 29.76C105.437 28.76 106.017 28.32 107.597 28.32C109.437 28.32 110.677 28.98 110.677 30.28C111.157 29.62 111.357 29.04 111.357 28.56C111.357 27.2 109.777 26.58 107.497 26.58C104.757 26.58 103.297 27.68 103.297 29.82Z" fill="currentColor"/>
</svg>

<svg xmlns="http://www.w3.org/2000/svg" width="128" height="64" fill="none" viewBox="0 0 128 64"><path fill="currentColor" fill-rule="evenodd" d="M33.1 26.26a9.412 9.412 0 0 1 6.9-1.02 9.467 9.467 0 0 1-4.33 5.483 9.418 9.418 0 0 1-6.9 1.02 9.458 9.458 0 0 1 4.33-5.483ZM15 25.24a9.418 9.418 0 0 1 6.9 1.02 9.461 9.461 0 0 1 4.329 5.482 9.411 9.411 0 0 1-6.898-1.02A9.464 9.464 0 0 1 15 25.24ZM27.5 18a9.485 9.485 0 0 1 2.568 6.503 9.487 9.487 0 0 1-2.568 6.504 9.49 9.49 0 0 1-2.568-6.504c0-2.516.977-4.802 2.568-6.503Zm0 15.95a9.485 9.485 0 0 1 2.568 6.505 9.486 9.486 0 0 1-2.568 6.503 9.489 9.489 0 0 1-2.568-6.503c0-2.518.977-4.804 2.568-6.504Zm1.27-.735a9.415 9.415 0 0 1 6.9 1.02A9.466 9.466 0 0 1 40 39.72a9.42 9.42 0 0 1-6.9-1.02 9.463 9.463 0 0 1-4.33-5.484Zm-2.54 0a9.463 9.463 0 0 1-4.33 5.483 9.414 9.414 0 0 1-6.9 1.02 9.466 9.466 0 0 1 11.23-6.503Z" clip-rule="evenodd"/><path fill="currentColor" d="M47.7 29.82c0 4.28 6.42 1.68 6.42 4.18 0 1.04-.96 1.54-2.22 1.54-1.74 0-3.26-.54-3.3-2.12-.56.68-.78 1.24-.78 1.74 0 1.4 1.72 2.08 4.08 2.08 2.94 0 4.36-1.22 4.36-3.14 0-4.72-6.42-2.24-6.42-4.34 0-1 .58-1.44 2.16-1.44 1.84 0 3.08.66 3.08 1.96.48-.66.68-1.24.68-1.72 0-1.36-1.58-1.98-3.86-1.98-2.74 0-4.2 1.1-4.2 3.24ZM64.48 36c0 1.1 2.1 1.14 2.1 1.14v-7.38c0-2.48-2.06-3.14-4-3.14-1.1 0-2 .42-2.98.42-.7 0-1.32-.26-1.54-.38V36c0 1.14 2.1 1.14 2.1 1.14V28.6s.9-.34 2.14-.34c1.6 0 2.18.66 2.18 1.8V36Zm4.494 0c0 1.14 2.1 1.14 2.1 1.14v-9.28c0-1.14-2.02-1.14-2.1-1.14V36Zm0-11.44c0 .26.3.48.6.48h1.48v-1.52c0-.24-.34-.5-.58-.5h-1.5v1.54Zm12.107 8.9c-.02 1.3-1.42 2.08-3.34 2.08-1.68 0-2.36-.66-2.36-1.96v-1.1c.54.3 1.38.42 2.04.42 3.04 0 4.1-1.46 4.1-3.12 0-1.9-1.38-3.16-4.08-3.16s-4.16 1.26-4.16 3.36v3.9c0 2.1 1.68 3.36 4.46 3.36 2.14 0 3.9-.84 3.9-2.26 0-.46-.18-.96-.56-1.52Zm-5.7-3.18c0-1.3.42-2.06 2.02-2.06 1.48 0 2.02.64 2.02 1.56 0 .9-.58 1.42-2.26 1.42-.72 0-1.68-.24-1.78-.28v-.64Zm16.292-3.62c-.6.26-1.1.36-1.56.36-.94 0-1.9-.4-3-.4-1.92 0-3.78.84-3.78 3.1v1.04c0 .78.26 1.64.74 2.16-.58.68-1 1.26-1 2.06 0 2.06 1.8 2.26 3.72 2.26h.98c1.3 0 2.2.12 2.2 1.22 0 1.02-.6 1.78-2.56 1.78s-3.42-.6-3.52-2.1c-.42.58-.6 1.1-.6 1.56 0 1.36 1.72 2.14 4.22 2.14 3.12 0 4.54-1.42 4.54-3.48 0-2.7-2.22-2.74-4.22-2.74h-.66c-1.52 0-2.36-.14-2.36-1.14 0-.26.08-.6.14-.92 0 0 .92.58 2.56.58 2.7 0 4.16-1.26 4.16-3.38v-4.1Zm-2.08 3.8c0 1.32-.42 2.08-2.08 2.08-1.68 0-2.08-.76-2.08-2.08v-.44c0-1.3.48-1.84 2.06-1.84 1.16 0 2 .38 2.1.42v1.86Zm9.974 4.78s-.84.46-2.1.46c-1.44 0-2.1-.62-2.1-1.5 0-2.08 3.78-1.36 4.2-2.56v3.6Zm-6.28-1.04c0 2.28 1.94 3.04 3.88 3.04 1.12 0 2.04-.36 3-.36.46 0 .94.06 1.44.28v-7.22c0-2.1-1.48-3.32-4.22-3.32-1.78 0-3.82.6-3.82 2.16 0 .48.18 1.04.66 1.7 0-1.54 1.38-2.2 3.16-2.2 1.7 0 2.12.68 2.12 1.56-.76 1.74-6.22.56-6.22 4.36Zm10.01-4.38c0 4.28 6.42 1.68 6.42 4.18 0 1.04-.96 1.54-2.22 1.54-1.74 0-3.26-.54-3.3-2.12-.56.68-.78 1.24-.78 1.74 0 1.4 1.72 2.08 4.08 2.08 2.94 0 4.36-1.22 4.36-3.14 0-4.72-6.42-2.24-6.42-4.34 0-1 .58-1.44 2.16-1.44 1.84 0 3.08.66 3.08 1.96.48-.66.68-1.24.68-1.72 0-1.36-1.58-1.98-3.86-1.98-2.74 0-4.2 1.1-4.2 3.24Z"/></svg>
